X:1
T:25 Lieder
T:Lied der Morgenröte
T:1. Lied der Morgenröte
T:Corona Elisabeth Wilhelmine Schröter
T:Johann Gottfried Herder (after Volkslieder) 
T:25 Lieder
T:NOTES TO TRANSCRIBER: 1. Full German text for verses 2-6 is available on Lieder.net: https://www.lieder.net/lieder/get_text.html?TextId=72311 2. Please transcribe into the Soprano clef, exactly as published: the reviewer will convert staves to Treble clef. 
T:Creative Commons copyright waiver (CC0 1.0 Universal)
C:Corona Elisabeth Wilhelmine Schröter
Z:Johann Gottfried Herder (after Volkslieder)
Z:Creative Commons copyright waiver (CC0 1.0 Universal)
L:1/8
M:4/4
K:E
V:1 alto1 nm="Singstimme\nVoice"
V:1
 E3 G |{A} G2 F2 cB AG | G2 F2 B2 B2 | e>d c>B A>G F>E | (E2 D2) B2 cd | e2 B2 c2 de | %6
w: 1. Komm Au-|ro- re! und * ent- *|flo- re mir dein|Pur- * pur- * an- * ge- *|sicht; * Dei- ne *|Strah- len, ach! sie *|
 f2 d2 e2{f} e2 |{d} c2{B} A2 (GB) (AF) | E2 z2 |] %9
w: ma- len mir mein|Pur- pur- mäd- * chen *|nicht.|

